X: 1
T:The Controversial
M:C|
L:1/8
C:Billy McComiskey
R:Reel
D:Dervish Live - WBGH
Z:John Norvel
K:D
|: A3 B AF F2 | d2 Bd efdB | AF F2 dBAF | FEDF EFGB |
   A3 B AF F2 | d2 Bd efdB | AF F2 dBAF |1 EDEF DEFG :|2 EDEF D2 z2 |
|: F2 GF E2 FE | DB,A,B, DEFA | BABc dBAF | FEDF E2 Ez |
   F2 AF E2 FE | DB,A,B, DEFA | BABc dBAG |1 FDEF D2 Dz :|2 FDEF DEFG |
